X: 5724
T: Cafferkey's Shine
R: reel
M: 4/4
K: Bdorian
fB~B2 cBAc|dfBa gbae|fB~B2 cBAF|EFAB cAec|
fB~B2 cBAc|dfBa ge(3fga|bfea fede|cBAF Eaga:|
|:f2ba fece|fbaf eAce|fbba fgaf|e2ce ABce|
f2ba fedc|defa efga|bgaf gegb|afec Bcde:|

